X: 171
T:Sixpenny Money
N: page 55
N: hexatonic
M:6/8
R:jig
K:Dmix
"D"fAA fAA|"G"BAG "Am"FGE|"D" ~D3 "D"AFA|"D"dfd "Am"e2d|\
"D"fAA fAA|"G"BAG FGE|"D" ~D3 AFA|dfd "Em"e2d:|
"D"~f3 "G"gfg|"D"afd edd|fef "G"gfg|"D"afd "Am"e2d|\
"D"~f3 "G"~g3|"D"afd "G"edB|"Am"ABA AFA|"D"dfd e2d:|
%%scale 0.80
